X:101
T:Trip to Nettle Bed, A
M:6/8
L:1/8
B:Thompson's Compleat Collection of 200 Favourite Country Dances, vol. 1 (London, 1757)
Z:Transcribed and edited by Fynnian Titford-Mock, 2007
Z:abc's:AK/Fiddler's Companion
K:Eb
(EG)B (eB)G|(cA)F {E}D2C|(B,D)F (DF)A|(GB)D E2 (3B/c/d/|e/B/ "tr"B2 f/B/ "tr"B2|(ge)c {B}=A2G|
F=Ac (Ac)e|1 df=A B2 (3_A/G/F/:|2 df=A B3|:f2g (fd)B|(ge)c (fd)B|{a}(gf)g agf|
edc {c}=B3|(ge)c a3|(fd)B g3|(ag)f (ed)c|G2 (3F/E/D/ C2 (3B/c/d/|{d}e3 BGE|cAF {E}D3|
f2g aga|cfe {e}d3|bgd eBc|afc d=AB|eBG cAF|BGD {D}E3:|

